www/assets/icons/person_3.svg

<svg xmlns="http://www.w3.org/2000/svg" width="24" height="24" viewBox="0 0 24 24" fill='currentColor'><path d="M18.39 15.56C16.71 14.7 14.53 14 12 14s-4.71.7-6.39 1.56A2.97 2.97 0 0 0 4 18.22V21h16v-2.78c0-1.12-.61-2.15-1.61-2.66M10 13h4c1.66 0 3-1.34 3-3 0-.73-.27-1.4-.71-1.92.13-.33.21-.7.21-1.08a3 3 0 0 0-1.86-2.77A3.46 3.46 0 0 0 12 3c-1.06 0-2 .48-2.64 1.23A3 3 0 0 0 7.5 7c0 .38.08.75.21 1.08C7.27 8.6 7 9.27 7 10c0 1.66 1.34 3 3 3"/></svg>

<svg width="24" height="24" viewBox="0 0 24 24" xmlns="http://www.w3.org/2000/svg" fill='currentColor'><path d="M18.39 15.56C16.71 14.7 14.53 14 12 14C9.47 14 7.29 14.7 5.61 15.56C4.61 16.07 4 17.1 4 18.22V21H20V18.22C20 17.1 19.39 16.07 18.39 15.56Z"/><path d="M10 13C10.17 13 13.83 13 14 13C15.66 13 17 11.66 17 10C17 9.27 16.73 8.6 16.29 8.08C16.42 7.75 16.5 7.38 16.5 7C16.5 5.75 15.73 4.68 14.64 4.23C14 3.48 13.06 3 12 3C10.94 3 10 3.48 9.36 4.23C8.27 4.68 7.5 5.75 7.5 7C7.5 7.38 7.58 7.75 7.71 8.08C7.27 8.6 7 9.27 7 10C7 11.66 8.34 13 10 13Z"/></svg>
